X: 9923
T: Det Måste Hända Något
R: waltz
M: 3/4
K: Bminor
"Bm"(dc B)(d cB)|(dc B)(d cB)|"G"(G6|G2)B2G2|"D"F3GF2|"A"E2D3E"F#"|(F6|F6)|
"Bm"(dc B)(d cB)|(dc B)(d cB)|"G"(G6|G2)B2G2|"D"F2A3F|"G"G2B2G2|"D"F2A3F|
"G"G2B2G2|"D"Fd "G" Ge "D" ed|"Em"Ed "Bm"d2 "F#"c2|"Bm"(B6|B6):|
"Bm"f3ed2|f2e2d2|"A"e2c3d|e4f2|e3d(c2|"G"c2)d2"F#"c2|"Bm"(B6|B2)a2g2|
"Bm"f3e de|f2e2d2|"A"e2c3d|e4f2|e3d(c2|"G"c2)d2"F#"c2|"Bm"(B6|1 B2)d2e2:|2 B6||

